packages/ui-solid/icons/addhome_24.svg

<svg width="24" height="24" viewBox="0 0 24 24" fill="none" xmlns="http://www.w3.org/2000/svg">
<path fill-rule="evenodd" clip-rule="evenodd" d="M12.4095 4.91303C12.1438 4.84594 11.8655 4.84594 11.5997 4.91303C11.3384 4.979 11.0719 5.1504 10.1577 5.80058L6.52959 8.38103C5.85652 8.85974 5.67255 9.00114 5.54423 9.16417C5.4139 9.32976 5.31641 9.51873 5.25701 9.72091C5.19852 9.91997 5.18992 10.1518 5.18992 10.9778V16.2141C5.18992 16.9441 5.19062 17.4376 5.22173 17.8183C5.25198 18.1886 5.30644 18.3723 5.37021 18.4975C5.52879 18.8087 5.78184 19.0618 6.09308 19.2204C6.21823 19.2841 6.402 19.3386 6.77224 19.3688C7.153 19.3999 7.64642 19.4006 8.37648 19.4006H15.6328C16.3628 19.4006 16.8563 19.3999 17.237 19.3688C17.6073 19.3386 17.791 19.2841 17.9162 19.2204C18.2274 19.0618 18.4805 18.8087 18.6391 18.4975C18.7028 18.3723 18.7573 18.1886 18.7875 17.8183C18.8186 17.4376 18.8193 16.9442 18.8193 16.2141V10.9778C18.8193 10.1518 18.8107 9.91997 18.7523 9.72091C18.6929 9.51873 18.5954 9.32976 18.465 9.16417C18.3367 9.00114 18.1527 8.85974 17.4797 8.38103L13.8515 5.80058C12.9374 5.1504 12.6708 4.979 12.4095 4.91303ZM11.1591 3.16779C11.7141 3.02769 12.2952 3.02769 12.8501 3.16779C13.4822 3.32736 14.0409 3.72539 14.7691 4.24427C14.8105 4.27372 14.8523 4.30355 14.8948 4.33375L18.5229 6.91419C18.5536 6.93604 18.584 6.95757 18.6139 6.97884C19.1545 7.36283 19.5704 7.65822 19.8795 8.05092C20.1516 8.3967 20.3552 8.7913 20.4793 9.21349C20.6201 9.69297 20.6198 10.2031 20.6194 10.8662C20.6194 10.9029 20.6193 10.9401 20.6193 10.9778V16.251C20.6194 16.9348 20.6194 17.5021 20.5816 17.9649C20.5422 18.4465 20.4575 18.8935 20.2429 19.3147C19.9117 19.9646 19.3833 20.493 18.7334 20.8242C18.3122 21.0388 17.8652 21.1235 17.3836 21.1629C16.9208 21.2007 16.3535 21.2007 15.6697 21.2006H8.33961C7.65575 21.2007 7.08843 21.2007 6.62567 21.1629C6.14411 21.1235 5.69709 21.0388 5.2759 20.8242C4.62596 20.493 4.09755 19.9646 3.7664 19.3147C3.55179 18.8935 3.46706 18.4465 3.42771 17.9649C3.3899 17.5021 3.38991 16.9348 3.38992 16.251L3.38992 10.9778C3.38992 10.9401 3.3899 10.9029 3.38988 10.8662C3.38945 10.2031 3.38913 9.69297 3.53001 9.21349C3.65405 8.7913 3.85763 8.3967 4.12978 8.05092C4.43886 7.65822 4.85474 7.36283 5.39536 6.97884C5.4253 6.95757 5.45562 6.93604 5.48633 6.91419L9.11448 4.33375C9.15694 4.30355 9.19881 4.27372 9.24013 4.24427C9.96841 3.72539 10.5271 3.32736 11.1591 3.16779ZM12.0046 8.6554C12.5017 8.6554 12.9046 9.05834 12.9046 9.5554V12.0847H15.4082C15.9052 12.0847 16.3082 12.4877 16.3082 12.9847C16.3082 13.4818 15.9052 13.8847 15.4082 13.8847H12.9046V16.4141C12.9046 16.9111 12.5017 17.3141 12.0046 17.3141C11.5076 17.3141 11.1046 16.9111 11.1046 16.4141V13.8847H8.60108C8.10403 13.8847 7.70108 13.4818 7.70108 12.9847C7.70108 12.4877 8.10403 12.0847 8.60108 12.0847H11.1046V9.5554C11.1046 9.05834 11.5076 8.6554 12.0046 8.6554Z" fill="#007AFF"/>
</svg>

<svg xmlns="http://www.w3.org/2000/svg" width="24" height="24" fill="none"><path fill="currentColor" fill-rule="evenodd" d="M12.41 4.913a1.65 1.65 0 0 0-.81 0c-.262.066-.528.237-1.442.888L6.53 8.38c-.673.479-.857.62-.986.783-.13.166-.228.355-.287.557-.058.199-.067.43-.067 1.257v5.236c0 .73 0 1.224.032 1.604.03.37.084.554.148.68.159.31.412.564.723.722.125.064.309.119.68.149.38.03.873.032 1.603.032h7.257c.73 0 1.223-.001 1.604-.032.37-.03.554-.085.68-.149.31-.158.563-.411.722-.723.064-.125.118-.308.149-.679.03-.38.031-.874.031-1.604v-5.236c0-.826-.008-1.058-.067-1.257a1.7 1.7 0 0 0-.287-.557c-.128-.163-.312-.304-.985-.783L13.851 5.8c-.914-.65-1.18-.822-1.442-.888m-1.25-1.745a3.45 3.45 0 0 1 1.69 0c.632.16 1.19.557 1.92 1.076l.125.09 3.628 2.58.09.065c.541.384.957.68 1.267 1.072.272.346.475.74.6 1.162.14.48.14.99.14 1.653v5.385c0 .684 0 1.251-.038 1.714-.04.482-.125.928-.34 1.35a3.46 3.46 0 0 1-1.509 1.51c-.42.214-.868.299-1.35.338-.462.038-1.03.038-1.713.038H8.34c-.684 0-1.252 0-1.714-.038-.482-.04-.929-.124-1.35-.339a3.45 3.45 0 0 1-1.51-1.51c-.214-.42-.299-.867-.338-1.35-.038-.462-.038-1.03-.038-1.713v-5.385c0-.663 0-1.173.14-1.653.124-.422.328-.816.6-1.162.309-.393.725-.688 1.265-1.072l.091-.065 3.628-2.58.126-.09c.728-.519 1.287-.917 1.92-1.076m.845 5.487a.9.9 0 0 1 .9.9v2.53h2.503a.9.9 0 0 1 0 1.8h-2.503v2.53a.9.9 0 0 1-1.8 0v-2.53H8.6a.9.9 0 1 1 0-1.8h2.504v-2.53a.9.9 0 0 1 .9-.9" clip-rule="evenodd"/></svg>
